X:1
M:4/4
K:C
A/2|:G/2F/2E/2D/2 B,/2A,/2D/2G/2|G/2A/2d/2c/2 d/2d/2c/2B/2|\
G/2B/2A/2A/2 F/2E/2D/2A/2|F/2G/2A/2B/2 B/2A/2F/2G/2|AA A:|
e|e/2e/2f/4g/2 e/2c/2B/2G/2|G/2B/2c/2d/2 e/2c/2A/2A/2|\
c/2A/2c/2B/2 d/2e/2f/2g/2|e/2d/2B/2c/2 A:|